svgs/sharp-light/table-list.svg

<svg xmlns="http://www.w3.org/2000/svg" viewBox="0 0 512 512"><!--! Font Awesome Pro 6.6.0 by @fontawesome - https://fontawesome.com License - https://fontawesome.com/license (Commercial License) Copyright 2024 Fonticons, Inc. --><path d="M192 64l0 96 288 0 0-96L192 64zm-32 0L32 64l0 96 128 0 0-96zM32 192l0 128 128 0 0-128L32 192zm0 160l0 96 128 0 0-96L32 352zm160 96l288 0 0-96-288 0 0 96zM480 320l0-128-288 0 0 128 288 0zM0 32l32 0 448 0 32 0 0 32 0 384 0 32-32 0L32 480 0 480l0-32L0 64 0 32z"/></svg>

<svg xmlns="http://www.w3.org/2000/svg" viewBox="0 0 512 512"><!--! Font Awesome Pro 6.4.0 by @fontawesome - https://fontawesome.com License - https://fontawesome.com/license (Commercial License) Copyright 2023 Fonticons, Inc. --><path d="M192 64v96H480V64H192zm-32 0H32v96H160V64zM32 192V320H160V192H32zm0 160v96H160V352H32zm160 96H480V352H192v96zM480 320V192H192V320H480zM0 32H32 480h32V64 448v32H480 32 0V448 64 32z"/></svg>
